bundle/image/components/fullCard/img/c1.svg

<svg width="47" height="47" viewBox="0 0 47 47" fill="none" xmlns="http://www.w3.org/2000/svg">
<path d="M6.07914 8.67377C14.2884 -0.981743 28.8261 -2.14915 38.4674 6.06432C48.1087 14.2778 49.2903 28.8112 41.0768 38.4526C32.8676 48.1081 18.3349 49.2663 8.68858 41.062C-0.966925 32.8528 -2.1251 18.3201 6.07914 8.67377ZM40.7433 38.1659C48.8014 28.7027 47.644 14.4559 38.1807 6.39781C28.7175 -1.66027 14.4707 -0.502809 6.41263 8.96041C-1.64545 18.4236 -0.487992 32.6704 8.97523 40.7285C18.4385 48.7866 32.6853 47.6291 40.7384 38.1751L40.7433 38.1659Z" fill="white"/>
</svg>

<svg width="47" height="47" fill="none" xmlns="http://www.w3.org/2000/svg"><path d="M6.08 8.674C14.287-.982 28.825-2.15 38.466 6.064c9.642 8.214 10.823 22.747 2.61 32.389-8.21 9.655-22.742 10.813-32.388 2.609-9.656-8.21-10.814-22.742-2.61-32.388zm34.663 29.492c8.058-9.463 6.901-23.71-2.562-31.768S14.47-.502 6.413 8.96c-8.058 9.464-6.901 23.71 2.562 31.768 9.464 8.059 23.71 6.901 31.763-2.553l.005-.01z" fill="#fff"/></svg>
